Newaita-dark/apps/48/flash.svg

<svg height="48pt" viewBox="0 0 48 48" width="48pt" xmlns="http://www.w3.org/2000/svg" xmlns:xlink="http://www.w3.org/1999/xlink"><linearGradient id="a" gradientUnits="userSpaceOnUse" x1="23.81478" x2="23.81478" y1="42.0509045" y2="44.03547050005"><stop offset="0" stop-opacity=".27451"/><stop offset="1" stop-opacity="0"/></linearGradient><linearGradient id="b"><stop offset="0" stop-opacity=".313726"/><stop offset=".222222" stop-opacity=".27451"/><stop offset="1" stop-opacity="0"/></linearGradient><radialGradient id="c" cx="450.908936" cy="189.579361" gradientTransform="matrix(.00000026 -.117199 -.210958 -.00000015 79.684395 95.392999)" gradientUnits="userSpaceOnUse" r="21.166656" xlink:href="#b"/><radialGradient id="d" cx="450.908936" cy="189.579361" gradientTransform="matrix(-.00000026 .117199 .210958 .00000015 -31.80678 -11.291218)" gradientUnits="userSpaceOnUse" r="21.166656" xlink:href="#b"/><radialGradient id="e" cx="450.908936" cy="189.579361" gradientTransform="matrix(-.00000026 -.117199 .210958 -.00000015 -31.80678 95.392999)" gradientUnits="userSpaceOnUse" r="21.166656" xlink:href="#b"/><radialGradient id="f" cx="450.908936" cy="189.579361" gradientTransform="matrix(.00000026 .117199 -.210958 .00000015 79.684393 -11.291219)" gradientUnits="userSpaceOnUse" r="21.166656" xlink:href="#b"/><linearGradient id="g" gradientUnits="userSpaceOnUse" x1="23.814786" x2="23.814786" y1="42.0509015" y2="4.34415649995"><stop offset="0" stop-color="#f44336"/><stop offset="1" stop-color="#ef5350"/></linearGradient><linearGradient id="h" gradientUnits="userSpaceOnUse" x1="23.814786" x2="23.814786" y1="42.0509015" y2="4.34415649995"><stop offset="0" stop-color="#e0e0e0"/><stop offset="1" stop-color="#eee"/></linearGradient><path d="m7.691406 42.050781h32.496094v1.984375h-32.496094zm0 0" fill="url(#a)"/><path d="m40.1875 42.050781h3.96875v-1.984375h-3.96875zm0 0" fill="url(#c)"/><path d="m7.691406 42.050781h-3.96875v1.984375h3.96875zm0 0" fill="url(#d)"/><path d="m7.691406 42.050781h-3.96875v-1.984375h3.96875zm0 0" fill="url(#e)"/><path d="m40.1875 42.050781h3.96875v1.984375h-3.96875zm0 0" fill="url(#f)"/><path d="m5.457031 4.34375h36.714844c.820313 0 1.488281.667969 1.488281 1.488281v34.730469c0 .820312-.667968 1.488281-1.488281 1.488281h-36.714844c-.820312 0-1.488281-.667969-1.488281-1.488281v-34.730469c0-.820312.667969-1.488281 1.488281-1.488281zm0 0" fill="url(#g)"/><path d="m5.457031 4.464844c-.824219 0-1.488281.664062-1.488281 1.488281v.246094c0-.824219.664062-1.488281 1.488281-1.488281h36.714844c.824219 0 1.488281.664062 1.488281 1.488281v-.246094c0-.824219-.664062-1.488281-1.488281-1.488281zm0 0" fill="#fff" fill-opacity=".392157"/><path d="m5.457031 41.929688c-.824219 0-1.488281-.664063-1.488281-1.488282v-.246094c0 .824219.664062 1.488282 1.488281 1.488282h36.714844c.824219 0 1.488281-.664063 1.488281-1.488282v.246094c0 .824219-.664062 1.488282-1.488281 1.488282zm0 0" fill="#030303" fill-opacity=".235294"/><path d="m5.457031 4.203125c-.898437 0-1.628906.730469-1.628906 1.628906v34.730469c0 .898438.730469 1.628906 1.628906 1.628906h36.714844c.898437 0 1.628906-.730468 1.628906-1.628906v-34.730469c0-.898437-.730469-1.628906-1.628906-1.628906zm0 .28125h36.714844c.75 0 1.347656.597656 1.347656 1.347656v34.730469c0 .75-.597656 1.347656-1.347656 1.347656h-36.714844c-.75 0-1.347656-.597656-1.347656-1.347656v-34.730469c0-.75.597656-1.347656 1.347656-1.347656zm0 0" fill="#212121"/><path d="m33.738281 10.324219c-.769531.015625-2.507812.171875-4.511719 1.171875-2.699218 1.351562-5.84375 4.222656-7.566406 10.503906-1.417968 5.1875-3.554687 7.613281-5.398437 8.707031-.921875.546875-1.761719.757813-2.375.828125-.203125.023438-.339844.015625-.492188.015625v4.429688c.710938.011719 2.28125-.074219 4.136719-.914063 2.519531-1.140625 5.515625-3.652344 7.359375-9.34375l.101563-.320312h6.121093v-4.417969h-4.160156l.144531-.582031s.351563-1.386719 1.40625-2.78125c.996094-1.3125 2.679688-2.644532 5.234375-2.832032zm0 0" fill="url(#h)"/><path d="m33.738281 10.324219c-.769531.015625-2.507812.171875-4.511719 1.171875-2.699218 1.351562-5.84375 4.222656-7.566406 10.503906-1.417968 5.1875-3.554687 7.613281-5.398437 8.707031-.921875.546875-1.761719.757813-2.375.828125-.203125.023438-.339844.015625-.492188.015625v.71875c.152344 0 .289063.007813.492188-.015625.613281-.070312 1.453125-.28125 2.375-.832031 1.84375-1.09375 3.980469-3.519531 5.398437-8.703125 1.722656-6.285156 4.867188-9.152344 7.566406-10.503906 2.003907-1.003906 3.742188-1.160156 4.511719-1.171875zm-6.601562 10.660156c-.023438.085937-.039063.136719-.039063.136719l-.144531.578125h4.160156v-.714844zm0 0" fill="#fff" fill-opacity=".983871"/><path d="m33.738281 14.78125c-2.554687.1875-4.238281 1.519531-5.234375 2.832031-1.054687 1.394531-1.40625 2.785157-1.40625 2.785157l-.144531.578124h.234375c.160156-.480468.550781-1.484374 1.316406-2.496093.996094-1.3125 2.679688-2.644531 5.234375-2.832031zm-8.746093 10.613281-.101563.320313c-1.84375 5.691406-4.839844 8.203125-7.359375 9.34375-1.855469.839844-3.425781.925781-4.136719.914062v.867188c.710938.011718 2.28125-.070313 4.136719-.910156 2.519531-1.140626 5.515625-3.652344 7.359375-9.34375l.101563-.324219h6.121093v-.867188zm0 0" fill-opacity=".235294"/><path d="m359.840637-104.885515c-8.20755.16665-26.747446 1.833158-48.120405 12.498806-28.788917 14.41529-62.327381 45.037366-80.700627 112.030968-15.123555 55.32805-37.913046 81.200579-57.577835 92.866132-9.832394 5.832776-18.789872 8.082561-25.330914 8.83249-2.16646.249976-3.624654.166651-5.249499.166651v47.245488c7.58261.124988 24.33101-.791591 44.120787-9.749069 26.872434-12.165505 58.827716-38.954613 78.492504-99.65715l1.08323-3.41634h65.285433v-47.120501h-44.370763l1.541519-6.20774s3.749642-14.790254 14.998568-29.663834c10.623985-13.998663 28.580604-28.20564 55.828002-30.205449zm0 0" fill="none" stroke="#212121" stroke-width="3" transform="matrix(.093759 0 0 .093759 0 20.158175)"/></svg>

<?xml version="1.0" encoding="UTF-8"?>
<svg xmlns="http://www.w3.org/2000/svg" xmlns:xlink="http://www.w3.org/1999/xlink" width="48pt" height="48pt" viewBox="0 0 48 48" version="1.1">
<defs>
<linearGradient id="linear0" gradientUnits="userSpaceOnUse" x1="254" y1="233.5" x2="254" y2="254.666672" gradientTransform="matrix(0.093759,0,0,0.093759,-0.00000572259,20.158178)">
<stop offset="0" style="stop-color:rgb(0%,0%,0%);stop-opacity:0.27451;"/>
<stop offset="1" style="stop-color:rgb(0%,0%,0%);stop-opacity:0;"/>
</linearGradient>
<radialGradient id="radial0" gradientUnits="userSpaceOnUse" cx="450.908936" cy="189.579361" fx="450.908936" fy="189.579361" r="21.166656" gradientTransform="matrix(0.000000261256,-0.117199,-0.210958,-0.000000152308,79.684395,95.392999)">
<stop offset="0" style="stop-color:rgb(0%,0%,0%);stop-opacity:0.313726;"/>
<stop offset="0.222222" style="stop-color:rgb(0%,0%,0%);stop-opacity:0.27451;"/>
<stop offset="1" style="stop-color:rgb(0%,0%,0%);stop-opacity:0;"/>
</radialGradient>
<radialGradient id="radial1" gradientUnits="userSpaceOnUse" cx="450.908936" cy="189.579361" fx="450.908936" fy="189.579361" r="21.166656" gradientTransform="matrix(-0.000000261256,0.117199,0.210958,0.000000152308,-31.80678,-11.291218)">
<stop offset="0" style="stop-color:rgb(0%,0%,0%);stop-opacity:0.313726;"/>
<stop offset="0.222222" style="stop-color:rgb(0%,0%,0%);stop-opacity:0.27451;"/>
<stop offset="1" style="stop-color:rgb(0%,0%,0%);stop-opacity:0;"/>
</radialGradient>
<radialGradient id="radial2" gradientUnits="userSpaceOnUse" cx="450.908936" cy="189.579361" fx="450.908936" fy="189.579361" r="21.166656" gradientTransform="matrix(-0.000000261256,-0.117199,0.210958,-0.000000152308,-31.80678,95.392999)">
<stop offset="0" style="stop-color:rgb(0%,0%,0%);stop-opacity:0.313726;"/>
<stop offset="0.222222" style="stop-color:rgb(0%,0%,0%);stop-opacity:0.27451;"/>
<stop offset="1" style="stop-color:rgb(0%,0%,0%);stop-opacity:0;"/>
</radialGradient>
<radialGradient id="radial3" gradientUnits="userSpaceOnUse" cx="450.908936" cy="189.579361" fx="450.908936" fy="189.579361" r="21.166656" gradientTransform="matrix(0.000000261256,0.117199,-0.210958,0.000000152308,79.684393,-11.291219)">
<stop offset="0" style="stop-color:rgb(0%,0%,0%);stop-opacity:0.313726;"/>
<stop offset="0.222222" style="stop-color:rgb(0%,0%,0%);stop-opacity:0.27451;"/>
<stop offset="1" style="stop-color:rgb(0%,0%,0%);stop-opacity:0;"/>
</radialGradient>
<linearGradient id="linear1" gradientUnits="userSpaceOnUse" x1="254" y1="233.5" x2="254" y2="-168.666672" gradientTransform="matrix(0.093759,0,0,0.093759,0,20.158175)">
<stop offset="0" style="stop-color:rgb(95.686275%,26.274511%,21.176471%);stop-opacity:1;"/>
<stop offset="1" style="stop-color:rgb(93.725491%,32.549021%,31.37255%);stop-opacity:1;"/>
</linearGradient>
<linearGradient id="linear2" gradientUnits="userSpaceOnUse" x1="254" y1="233.5" x2="254" y2="-168.666672" gradientTransform="matrix(0.093759,0,0,0.093759,0,20.158175)">
<stop offset="0" style="stop-color:rgb(87.843138%,87.843138%,87.843138%);stop-opacity:1;"/>
<stop offset="1" style="stop-color:rgb(93.333334%,93.333334%,93.333334%);stop-opacity:1;"/>
</linearGradient>
</defs>
<g id="surface1">
<path style=" stroke:none;fill-rule:nonzero;fill:url(#linear0);" d="M 7.691406 42.050781 L 40.1875 42.050781 L 40.1875 44.035156 L 7.691406 44.035156 Z M 7.691406 42.050781 "/>
<path style=" stroke:none;fill-rule:nonzero;fill:url(#radial0);" d="M 40.1875 42.050781 L 44.15625 42.050781 L 44.15625 40.066406 L 40.1875 40.066406 Z M 40.1875 42.050781 "/>
<path style=" stroke:none;fill-rule:nonzero;fill:url(#radial1);" d="M 7.691406 42.050781 L 3.722656 42.050781 L 3.722656 44.035156 L 7.691406 44.035156 Z M 7.691406 42.050781 "/>
<path style=" stroke:none;fill-rule:nonzero;fill:url(#radial2);" d="M 7.691406 42.050781 L 3.722656 42.050781 L 3.722656 40.066406 L 7.691406 40.066406 Z M 7.691406 42.050781 "/>
<path style=" stroke:none;fill-rule:nonzero;fill:url(#radial3);" d="M 40.1875 42.050781 L 44.15625 42.050781 L 44.15625 44.035156 L 40.1875 44.035156 Z M 40.1875 42.050781 "/>
<path style=" stroke:none;fill-rule:nonzero;fill:url(#linear1);" d="M 5.457031 4.34375 L 42.171875 4.34375 C 42.992188 4.34375 43.660156 5.011719 43.660156 5.832031 L 43.660156 40.5625 C 43.660156 41.382812 42.992188 42.050781 42.171875 42.050781 L 5.457031 42.050781 C 4.636719 42.050781 3.96875 41.382812 3.96875 40.5625 L 3.96875 5.832031 C 3.96875 5.011719 4.636719 4.34375 5.457031 4.34375 Z M 5.457031 4.34375 "/>
<path style=" stroke:none;fill-rule:nonzero;fill:rgb(100%,100%,100%);fill-opacity:0.392157;" d="M 5.457031 4.464844 C 4.632812 4.464844 3.96875 5.128906 3.96875 5.953125 L 3.96875 6.199219 C 3.96875 5.375 4.632812 4.710938 5.457031 4.710938 L 42.171875 4.710938 C 42.996094 4.710938 43.660156 5.375 43.660156 6.199219 L 43.660156 5.953125 C 43.660156 5.128906 42.996094 4.464844 42.171875 4.464844 Z M 5.457031 4.464844 "/>
<path style=" stroke:none;fill-rule:nonzero;fill:rgb(1.176471%,1.176471%,1.176471%);fill-opacity:0.235294;" d="M 5.457031 41.929688 C 4.632812 41.929688 3.96875 41.265625 3.96875 40.441406 L 3.96875 40.195312 C 3.96875 41.019531 4.632812 41.683594 5.457031 41.683594 L 42.171875 41.683594 C 42.996094 41.683594 43.660156 41.019531 43.660156 40.195312 L 43.660156 40.441406 C 43.660156 41.265625 42.996094 41.929688 42.171875 41.929688 Z M 5.457031 41.929688 "/>
<path style=" stroke:none;fill-rule:nonzero;fill:rgb(12.941177%,12.941177%,12.941177%);fill-opacity:1;" d="M 5.457031 4.203125 C 4.558594 4.203125 3.828125 4.933594 3.828125 5.832031 L 3.828125 40.5625 C 3.828125 41.460938 4.558594 42.191406 5.457031 42.191406 L 42.171875 42.191406 C 43.070312 42.191406 43.800781 41.460938 43.800781 40.5625 L 43.800781 5.832031 C 43.800781 4.933594 43.070312 4.203125 42.171875 4.203125 Z M 5.457031 4.484375 L 42.171875 4.484375 C 42.921875 4.484375 43.519531 5.082031 43.519531 5.832031 L 43.519531 40.5625 C 43.519531 41.3125 42.921875 41.910156 42.171875 41.910156 L 5.457031 41.910156 C 4.707031 41.910156 4.109375 41.3125 4.109375 40.5625 L 4.109375 5.832031 C 4.109375 5.082031 4.707031 4.484375 5.457031 4.484375 Z M 5.457031 4.484375 "/>
<path style=" stroke:none;fill-rule:nonzero;fill:url(#linear2);" d="M 33.738281 10.324219 C 32.96875 10.339844 31.230469 10.496094 29.226562 11.496094 C 26.527344 12.847656 23.382812 15.71875 21.660156 22 C 20.242188 27.1875 18.105469 29.613281 16.261719 30.707031 C 15.339844 31.253906 14.5 31.464844 13.886719 31.535156 C 13.683594 31.558594 13.546875 31.550781 13.394531 31.550781 L 13.394531 35.980469 C 14.105469 35.992188 15.675781 35.90625 17.53125 35.066406 C 20.050781 33.925781 23.046875 31.414062 24.890625 25.722656 L 24.992188 25.402344 L 31.113281 25.402344 L 31.113281 20.984375 L 26.953125 20.984375 L 27.097656 20.402344 C 27.097656 20.402344 27.449219 19.015625 28.503906 17.621094 C 29.5 16.308594 31.183594 14.976562 33.738281 14.789062 Z M 33.738281 10.324219 "/>
<path style=" stroke:none;fill-rule:nonzero;fill:rgb(100%,100%,100%);fill-opacity:0.983871;" d="M 33.738281 10.324219 C 32.96875 10.339844 31.230469 10.496094 29.226562 11.496094 C 26.527344 12.847656 23.382812 15.71875 21.660156 22 C 20.242188 27.1875 18.105469 29.613281 16.261719 30.707031 C 15.339844 31.253906 14.5 31.464844 13.886719 31.535156 C 13.683594 31.558594 13.546875 31.550781 13.394531 31.550781 L 13.394531 32.269531 C 13.546875 32.269531 13.683594 32.277344 13.886719 32.253906 C 14.5 32.183594 15.339844 31.972656 16.261719 31.421875 C 18.105469 30.328125 20.242188 27.902344 21.660156 22.71875 C 23.382812 16.433594 26.527344 13.566406 29.226562 12.214844 C 31.230469 11.210938 32.96875 11.054688 33.738281 11.042969 Z M 27.136719 20.984375 C 27.113281 21.070312 27.097656 21.121094 27.097656 21.121094 L 26.953125 21.699219 L 31.113281 21.699219 L 31.113281 20.984375 Z M 27.136719 20.984375 "/>
<path style=" stroke:none;fill-rule:nonzero;fill:rgb(0%,0%,0%);fill-opacity:0.235294;" d="M 33.738281 14.78125 C 31.183594 14.96875 29.5 16.300781 28.503906 17.613281 C 27.449219 19.007812 27.097656 20.398438 27.097656 20.398438 L 26.953125 20.976562 L 27.1875 20.976562 C 27.347656 20.496094 27.738281 19.492188 28.503906 18.480469 C 29.5 17.167969 31.183594 15.835938 33.738281 15.648438 Z M 24.992188 25.394531 L 24.890625 25.714844 C 23.046875 31.40625 20.050781 33.917969 17.53125 35.058594 C 15.675781 35.898438 14.105469 35.984375 13.394531 35.972656 L 13.394531 36.839844 C 14.105469 36.851562 15.675781 36.769531 17.53125 35.929688 C 20.050781 34.789062 23.046875 32.277344 24.890625 26.585938 L 24.992188 26.261719 L 31.113281 26.261719 L 31.113281 25.394531 Z M 24.992188 25.394531 "/>
<path style="fill:none;stroke-width:3;stroke-linecap:butt;stroke-linejoin:miter;stroke:rgb(12.941177%,12.941177%,12.941177%);stroke-opacity:1;stroke-miterlimit:4;" d="M 359.840637 -104.885515 C 351.633087 -104.718865 333.093191 -103.052357 311.720232 -92.386709 C 282.931315 -77.971419 249.392851 -47.349343 231.019605 19.644259 C 215.89605 74.972309 193.106559 100.844838 173.44177 112.510391 C 163.609376 118.343167 154.651898 120.592952 148.110856 121.342881 C 145.944396 121.592857 144.486202 121.509532 142.861357 121.509532 L 142.861357 168.75502 C 150.443967 168.880008 167.192367 167.963429 186.982144 159.005951 C 213.854578 146.840446 245.80986 120.051338 265.474648 59.348801 L 266.557878 55.932461 L 331.843311 55.932461 L 331.843311 8.81196 L 287.472548 8.81196 L 289.014067 2.60422 C 289.014067 2.60422 292.763709 -12.186034 304.012635 -27.059614 C 314.63662 -41.058277 332.593239 -55.265254 359.840637 -57.265063 Z M 359.840637 -104.885515 " transform="matrix(0.093759,0,0,0.093759,0,20.158175)"/>
</g>
</svg>
